nextflow/nextflow_logo_dark.svg

<svg width="1781" height="500" viewBox="0 0 1781 500" fill="none" xmlns="http://www.w3.org/2000/svg">
<mask id="mask0_416_1279" style="mask-type:luminance" maskUnits="userSpaceOnUse" x="124" y="125" width="1532" height="250">
<path d="M1655.6 125H124.6V375H1655.6V125Z" fill="white"/>
</mask>
<g mask="url(#mask0_416_1279)">
<path d="M124.6 171.1C164 173.7 195.6 205.4 198.1 244.9H244.2C241.6 179.9 189.5 127.7 124.6 125V171.1Z" fill="#201637"/>
<path d="M198.4 255.4C195.8 294.8 164.1 326.5 124.6 328.9V375C189.5 372.4 241.8 320.3 244.5 255.4H198.4Z" fill="#201637"/>
<path d="M300.799 244.6C303.399 205.2 335.099 173.5 374.599 171.1V125C309.699 127.6 257.399 179.7 254.699 244.6H300.799Z" fill="#201637"/>
<path d="M374.6 328.9C335.2 326.3 303.6 294.6 301.1 255.1H255C257.6 320.1 309.7 372.3 374.6 375V328.9Z" fill="#201637"/>
<path d="M454.6 329.5V171.1H485.3V196H490.2C493 189.9 498.1 184.2 505.4 179C512.7 173.7 523.5 171.1 537.9 171.1C549.2 171.1 559.3 173.6 568.1 178.7C576.9 183.8 583.9 190.9 588.9 200.1C593.9 209.3 596.5 220.4 596.5 233.4V329.5H565.2V235.9C565.2 222.9 562 213.4 555.5 207.2C549 201 540.1 197.9 528.8 197.9C515.8 197.9 505.4 202.2 497.6 210.7C489.8 219.2 485.9 231.6 485.9 247.8V329.6L454.6 329.5Z" fill="#201637"/>
<path d="M1202.9 329.601V125.301H1234.2V329.601H1202.9Z" fill="#201637"/>
<path d="M1341.7 329.599C1326.7 329.599 1313.4 326.499 1301.7 320.299C1290 314.099 1280.9 305.299 1274.2 293.699C1267.5 282.099 1264.2 268.499 1264.2 252.699V248.099C1264.2 232.299 1267.5 218.699 1274.2 207.199C1280.9 195.699 1290.1 186.899 1301.7 180.599C1313.3 174.299 1326.7 171.199 1341.7 171.199C1356.7 171.199 1370.1 174.299 1381.8 180.599C1393.5 186.899 1402.8 195.699 1409.5 207.199C1416.2 218.599 1419.5 232.299 1419.5 248.099V252.699C1419.5 268.499 1416.2 282.199 1409.5 293.699C1402.8 305.199 1393.6 314.099 1381.8 320.299C1370 326.499 1356.7 329.599 1341.7 329.599ZM1341.7 301.599C1355.5 301.599 1366.7 297.199 1375.3 288.399C1383.9 279.599 1388.2 267.399 1388.2 251.799V248.999C1388.2 233.399 1383.9 221.199 1375.4 212.399C1366.9 203.599 1355.6 199.199 1341.7 199.199C1327.8 199.199 1317 203.599 1308.4 212.399C1299.8 221.199 1295.5 233.399 1295.5 248.999V251.699C1295.5 267.299 1299.8 279.499 1308.4 288.299C1317 297.199 1328.1 301.599 1341.7 301.599Z" fill="#201637"/>
<path d="M1461.8 303.299L1440.5 171.199H1471.8L1490.6 308.599H1495.5L1516.9 196.099C1519.6 181.699 1532.3 171.199 1547 171.199C1561.7 171.199 1574.4 181.699 1577.1 196.199L1598.2 308.599H1603.1L1621.9 171.199H1653.2L1632 303.299C1629.6 318.499 1616.5 329.599 1601.1 329.599C1586.1 329.599 1573.1 318.899 1570.4 304.099L1549.4 192.499H1544.5L1523.5 304.099C1520.7 318.899 1507.8 329.599 1492.8 329.599C1477.3 329.599 1464.2 318.399 1461.8 303.299Z" fill="#201637"/>
<path d="M1104.6 133.8C1099.2 139.3 1096.5 146.6 1096.5 155.8V329.7H1127.9V197.8H1172.8V171.3H1151.1L1133.4 189H1127.9V160.9C1127.9 154.8 1130.8 151.7 1136.7 151.7H1172.6V125.5H1126.6C1117.4 125.5 1110 128.3 1104.6 133.8Z" fill="#201637"/>
<path d="M1023.1 293.501V210.301H991.699V299.001C991.699 308.201 994.399 315.501 999.799 321.001C1005.2 326.501 1012.5 329.201 1021.6 329.201H1063.1V302.601H1031.7C1025.9 302.701 1023.1 299.601 1023.1 293.501Z" fill="#201637"/>
<path d="M834.499 286.601C825.799 297.001 812.999 302.001 799.399 302.001H704.099C691.499 302.001 680.999 298.101 672.499 290.201C671.999 289.701 671.499 289.201 670.999 288.701C670.499 288.201 669.999 287.701 669.599 287.101C668.499 285.801 667.399 284.401 666.499 283.001C662.399 276.801 659.999 269.501 659.499 261.001C659.399 260.201 659.399 259.401 659.399 258.501H775.099V246.601C775.099 231.301 772.099 218.001 765.899 206.601C759.799 195.201 751.299 186.301 740.399 179.901C729.499 173.501 716.799 170.301 702.399 170.301C687.999 170.301 674.499 173.501 663.299 180.101C657.699 183.301 652.699 187.201 648.299 191.801C647.799 192.401 647.199 192.901 646.699 193.501C645.099 195.301 643.599 197.101 642.199 199.001C640.299 201.601 638.599 204.301 636.999 207.201C630.599 218.801 627.399 232.401 627.399 248.101V251.801C627.399 267.501 630.599 281.101 636.999 292.701C643.399 304.301 652.299 313.301 663.699 319.701C675.099 326.101 688.399 329.301 703.699 329.301H797.099C805.599 329.301 823.499 327.801 833.999 321.801C845.699 315.201 852.999 307.301 864.899 293.001L869.399 286.501L852.199 262.101L834.499 286.601ZM659.499 234.601C659.799 232.501 660.199 230.501 660.699 228.601C661.199 226.701 661.799 224.801 662.499 223.001C664.899 217.101 668.399 212.101 672.999 208.001C680.399 201.501 689.999 198.201 701.799 198.201C713.599 198.201 723.199 201.401 730.499 208.001C737.799 214.501 741.999 223.401 742.999 234.601H680.099L663.999 250.701H658.699C658.799 246.001 658.899 240.101 659.499 234.601Z" fill="#201637"/>
<path d="M1023.1 170.8V125H991.7V170.8H962.1C953.6 170.8 935.7 172.3 925.2 178.3C913.5 184.9 903.9 193.3 892 207.6L878.8 225.7C873.3 217.7 868.8 211.3 866.7 208.4C856 193.3 845.5 185.4 833.8 178.8C823.2 172.9 806.4 171.3 797.9 171.3H792V198.8H800.4C813.9 198.8 825.8 203.9 834.5 214.3L860.2 251.3L860.1 251.5L875.8 273.8L889.1 293C901 307.2 910.5 315.7 922.3 322.3C932.9 328.2 950.7 329.8 959.2 329.8H965.1V302H956.7C943.2 302 930 297.2 921.6 286.6C918.4 282.5 907 266.3 895.3 249.5L920.4 213.7C929.1 203.3 945.9 197.3 959.5 197.3H1066.6V170.7L1023.1 170.8Z" fill="#201637"/>
</g>
</svg>

<?xml version="1.0" encoding="utf-8"?>
<!-- Generator: Adobe Illustrator 28.3.0, SVG Export Plug-In . SVG Version: 6.00 Build 0)  -->
<svg version="1.1" id="Layer_1" xmlns="http://www.w3.org/2000/svg" xmlns:xlink="http://www.w3.org/1999/xlink" x="0px" y="0px"
	 viewBox="0 0 1781 500" style="enable-background:new 0 0 1781 500;" xml:space="preserve">
<style type="text/css">
	.st0{clip-path:url(#SVGID_00000039134336802512844530000009718184002510297739_);}
	.st1{fill:#160F26;}
</style>
<g>
	<defs>
		<rect id="SVGID_1_" x="124.6" y="125" width="1531" height="250"/>
	</defs>
	<clipPath id="SVGID_00000152246828822335458390000015843553960139382971_">
		<use xlink:href="#SVGID_1_"  style="overflow:visible;"/>
	</clipPath>
	<g style="clip-path:url(#SVGID_00000152246828822335458390000015843553960139382971_);">
		<path class="st1" d="M124.6,171.1c39.4,2.6,71,34.3,73.5,73.8h46.1c-2.6-65-54.7-117.2-119.6-119.9V171.1z"/>
		<path class="st1" d="M198.4,255.4c-2.6,39.4-34.3,71.1-73.8,73.5V375c64.9-2.6,117.2-54.7,119.9-119.6H198.4z"/>
		<path class="st1" d="M300.8,244.6c2.6-39.4,34.3-71.1,73.8-73.5V125c-64.9,2.6-117.2,54.7-119.9,119.6H300.8z"/>
		<path class="st1" d="M374.6,328.9c-39.4-2.6-71-34.3-73.5-73.8H255c2.6,65,54.7,117.2,119.6,119.9V328.9z"/>
		<path class="st1" d="M454.6,329.5V171.1h30.7v24.9h4.9c2.8-6.1,7.9-11.8,15.2-17c7.3-5.3,18.1-7.9,32.5-7.9
			c11.3,0,21.4,2.5,30.2,7.6c8.8,5.1,15.8,12.2,20.8,21.4s7.6,20.3,7.6,33.3v96.1h-31.3v-93.6c0-13-3.2-22.5-9.7-28.7
			c-6.5-6.2-15.4-9.3-26.7-9.3c-13,0-23.4,4.3-31.2,12.8s-11.7,20.9-11.7,37.1v81.8L454.6,329.5L454.6,329.5z"/>
		<path class="st1" d="M1202.9,329.6V125.3h31.3v204.3H1202.9z"/>
		<path class="st1" d="M1341.7,329.6c-15,0-28.3-3.1-40-9.3c-11.7-6.2-20.8-15-27.5-26.6s-10-25.2-10-41v-4.6
			c0-15.8,3.3-29.4,10-40.9s15.9-20.3,27.5-26.6c11.6-6.3,25-9.4,40-9.4s28.4,3.1,40.1,9.4c11.7,6.3,21,15.1,27.7,26.6
			c6.7,11.4,10,25.1,10,40.9v4.6c0,15.8-3.3,29.5-10,41c-6.7,11.5-15.9,20.4-27.7,26.6C1370,326.5,1356.7,329.6,1341.7,329.6z
			 M1341.7,301.6c13.8,0,25-4.4,33.6-13.2c8.6-8.8,12.9-21,12.9-36.6V249c0-15.6-4.3-27.8-12.8-36.6c-8.5-8.8-19.8-13.2-33.7-13.2
			s-24.7,4.4-33.3,13.2c-8.6,8.8-12.9,21-12.9,36.6v2.7c0,15.6,4.3,27.8,12.9,36.6C1317,297.2,1328.1,301.6,1341.7,301.6z"/>
		<path class="st1" d="M1461.8,303.3l-21.3-132.1h31.3l18.8,137.4h4.9l21.4-112.5c2.7-14.4,15.4-24.9,30.1-24.9
			c14.7,0,27.4,10.5,30.1,25l21.1,112.4h4.9l18.8-137.4h31.3L1632,303.3c-2.4,15.2-15.5,26.3-30.9,26.3c-15,0-28-10.7-30.7-25.5
			l-21-111.6h-4.9l-21,111.6c-2.8,14.8-15.7,25.5-30.7,25.5C1477.3,329.6,1464.2,318.4,1461.8,303.3L1461.8,303.3z"/>
		<path class="st1" d="M1104.6,133.8c-5.4,5.5-8.1,12.8-8.1,22v173.9h31.4V197.8h44.9v-26.5h-21.7l-17.7,17.7h-5.5v-28.1
			c0-6.1,2.9-9.2,8.8-9.2h35.9v-26.2h-46C1117.4,125.5,1110,128.3,1104.6,133.8z"/>
		<path class="st1" d="M1023.1,293.5v-83.2h-31.4V299c0,9.2,2.7,16.5,8.1,22c5.4,5.5,12.7,8.2,21.8,8.2h41.5v-26.6h-31.4
			C1025.9,302.7,1023.1,299.6,1023.1,293.5L1023.1,293.5z"/>
		<path class="st1" d="M834.5,286.6c-8.7,10.4-21.5,15.4-35.1,15.4h-95.3c-12.6,0-23.1-3.9-31.6-11.8c-0.5-0.5-1-1-1.5-1.5
			c-0.5-0.5-1-1-1.4-1.6c-1.1-1.3-2.2-2.7-3.1-4.1c-4.1-6.2-6.5-13.5-7-22c-0.1-0.8-0.1-1.6-0.1-2.5h115.7v-11.9
			c0-15.3-3-28.6-9.2-40c-6.1-11.4-14.6-20.3-25.5-26.7c-10.9-6.4-23.6-9.6-38-9.6c-14.4,0-27.9,3.2-39.1,9.8
			c-5.6,3.2-10.6,7.1-15,11.7c-0.5,0.6-1.1,1.1-1.6,1.7c-1.6,1.8-3.1,3.6-4.5,5.5c-1.9,2.6-3.6,5.3-5.2,8.2
			c-6.4,11.6-9.6,25.2-9.6,40.9v3.7c0,15.7,3.2,29.3,9.6,40.9c6.4,11.6,15.3,20.6,26.7,27c11.4,6.4,24.7,9.6,40,9.6h93.4
			c8.5,0,26.4-1.5,36.9-7.5c11.7-6.6,19-14.5,30.9-28.8l4.5-6.5l-17.2-24.4L834.5,286.6L834.5,286.6z M659.5,234.6
			c0.3-2.1,0.7-4.1,1.2-6c0.5-1.9,1.1-3.8,1.8-5.6c2.4-5.9,5.9-10.9,10.5-15c7.4-6.5,17-9.8,28.8-9.8c11.8,0,21.4,3.2,28.7,9.8
			c7.3,6.5,11.5,15.4,12.5,26.6h-62.9l-16.1,16.1h-5.3C658.8,246,658.9,240.1,659.5,234.6z"/>
		<path class="st1" d="M1023.1,170.8V125h-31.4v45.8h-29.6c-8.5,0-26.4,1.5-36.9,7.5c-11.7,6.6-21.3,15-33.2,29.3l-13.2,18.1
			c-5.5-8-10-14.4-12.1-17.3c-10.7-15.1-21.2-23-32.9-29.6c-10.6-5.9-27.4-7.5-35.9-7.5H792v27.5h8.4c13.5,0,25.4,5.1,34.1,15.5
			l25.7,37l-0.1,0.2l15.7,22.3l13.3,19.2c11.9,14.2,21.4,22.7,33.2,29.3c10.6,5.9,28.4,7.5,36.9,7.5h5.9V302h-8.4
			c-13.5,0-26.7-4.8-35.1-15.4c-3.2-4.1-14.6-20.3-26.3-37.1l25.1-35.8c8.7-10.4,25.5-16.4,39.1-16.4h107.1v-26.6L1023.1,170.8
			L1023.1,170.8z"/>
	</g>
</g>
</svg>
